brandFactory_export/1.Light/Escudo rayas _1Light.svg

<?xml version="1.0" encoding="UTF-8"?>
<svg width="24px" height="24px" viewBox="0 0 24 24" version="1.1" xmlns="http://www.w3.org/2000/svg" xmlns:xlink="http://www.w3.org/1999/xlink">
    <title>1.Light/Escudo rayas _1Light</title>
    <g id="Symbols" stroke="none" stroke-width="1" fill="none" fill-rule="evenodd">
        <g id="1.Light/Escudo-rayas-_1Light" fill="#5CB615" fill-rule="nonzero">
            <path d="M10.8470588,22.3058824 L10.8470588,11.9798319 L19.4554622,11.9798319 C19.3815126,13.0823529 19.2840336,14.097479 19.1529412,14.8504202 C18.6151261,17.9865546 12.8672269,21.2470588 10.8470588,22.3058824 M1.55294118,14.8504202 C1.42184874,14.0941176 1.32436975,13.0823529 1.24705882,11.9798319 L9.85210084,11.9798319 L9.85210084,22.3058824 C7.83193277,21.2470588 2.09411765,17.9865546 1.55294118,14.8504202 M5.71428571,2.65210084 C6.8302521,1.90588235 7.98991597,1.14621849 9.85210084,1.02521008 L9.85210084,10.9747899 L1.18319328,10.9747899 C1.04201681,8.3092437 1.01512605,5.38823529 1.00840336,4.18151261 C3.14957983,4.36638655 4.45714286,3.49579832 5.71428571,2.65210084 M19.6907563,4.17478992 C19.687395,5.37478992 19.6605042,8.30588235 19.5193277,10.9747899 L10.8470588,10.9747899 L10.8470588,1.02857143 C12.7092437,1.14621849 13.8689076,1.9092437 14.9815126,2.65546218 C16.2319328,3.48907563 17.5260504,4.34957983 19.6907563,4.17478992 M20.685802,3.61008403 C20.6756303,3.46218487 20.605042,3.32773109 20.4907563,3.23697479 C20.3731092,3.14285714 20.2218487,3.10252101 20.0705882,3.12605042 C17.9764706,3.45882353 16.8436975,2.69579832 15.5327731,1.81848739 C14.2621849,0.968067227 12.8168067,0.00336134454 10.3529412,0 L10.3462185,0 C7.88235294,0 6.44033613,0.964705882 5.16638655,1.81848739 C3.85210084,2.69579832 2.71932773,3.46218487 0.621848739,3.12268908 C0.47394958,3.08907563 0.319327731,3.12605042 0.201680672,3.22016807 C0.0840336134,3.31428571 0.0168067227,3.45882353 0.0133595971,3.61008403 C0.0133595971,3.9394958 -0.00672268908,11.687395 0.571428571,15.0252101 C1.31092437,19.3243697 9.77478992,23.405042 10.1344538,23.5764706 C10.1378151,23.5798319 10.1411765,23.5764706 10.1445378,23.5798319 C10.2084034,23.610084 10.2756303,23.6268908 10.3462185,23.6268908 C10.4168067,23.6268908 10.487395,23.610084 10.5512605,23.5798319 C10.5546218,23.5764706 10.5546218,23.5798319 10.5579832,23.5764706 C10.9210084,23.405042 19.394958,19.3243697 20.1344538,15.0252101 C20.7058824,11.6840336 20.685802,3.93613445 20.685802,3.61008403" id="Escudo-rayas-_1Light"></path>
        </g>
    </g>
</svg>

<svg width="24" height="24" viewBox="0 0 24 24" xmlns="http://www.w3.org/2000/svg"><path d="M10.847 22.306V11.98h8.608c-.073 1.102-.171 2.117-.302 2.87-.538 3.137-6.286 6.397-8.306 7.456M1.553 14.85c-.131-.756-.229-1.768-.306-2.87h8.605v10.326c-2.02-1.059-7.758-4.32-8.3-7.456M5.715 2.652C6.83 1.906 7.99 1.146 9.852 1.025v9.95H1.183c-.141-2.666-.168-5.587-.175-6.793 2.142.184 3.45-.686 4.706-1.53m13.977 1.523c-.004 1.2-.03 4.13-.172 6.8h-8.672V1.029c1.862.117 3.022.88 4.135 1.626 1.25.834 2.544 1.695 4.709 1.52m.995-.565a.52.52 0 00-.195-.373.538.538 0 00-.42-.11c-2.095.332-3.227-.431-4.538-1.309C14.263.968 12.817.003 10.353 0h-.007C7.882 0 6.44.965 5.166 1.818 3.852 2.696 2.72 3.462.622 3.123a.497.497 0 00-.42.097.513.513 0 00-.189.39c0 .33-.02 8.077.558 11.415.74 4.3 9.204 8.38 9.563 8.551.004.004.007 0 .01.004a.467.467 0 00.407 0c.004-.004.004 0 .007-.004.363-.171 8.837-4.252 9.576-8.55.572-3.342.552-11.09.552-11.416" fill="#5CB615" fill-rule="nonzero"/></svg>
